X:3
T:March in the Battle of Prague
M:C
L:1/8
R:March
N:The front page of the publication indicates the volume was compiled by Elias Howe
N:and arrenged by "Messers. A.P. Knight and H. Seipp, of the Boston Brigade Band".
B:Elias Howe - "First Part of the Musician's Companion" (Boston, 1842, p. 18).
Z:AK/Fiddler's Companion
K:D
(3ABc|d2 d>d d2 e/d/c/B/|A2 A>A A2 f>d|B2 g>e c2 e>c|d2 d>d d2 f>d|
e2 cd/c/d/ eefe|d2 B/c/B/c/ dded|c>d e/d/c/B/ A2 ^G2|A2 A>A A2:|
|:A2 A>B c>d e>f|g2 e>g f2 d>f|a>f d>f g>e f>d|e2 A>A A2 F>G|
A2 B>c d2 f>d|B2 g>e f2 d>f|af .d.d gedc|d2 d>d d2z2:|]

